!!!COM: Bach, Johann Sebastian
!!!OPR: Joh. Seb. Bachs vierstimmige Choralges‰nge
!!!XEN: Four-part Chorales
!!!OTL: 108. Jesu, meines Herzens Freud'
!!!SCT: BWV 361
!!!SCA: Thematisch-systematisches Verzeichnis der musikalischen Werke Johann Sebastian Bach: Bach-Werke-Verzeichnis (Schmieder)
!!!YOR: Bach Gesellschaft Edition xxxix
!!!ENC: Steven Rasmussen
!!!CDT: 1685/3//-1750/7/28/
!!!OCY: Deutschland
!!!YEC: Copyright (c) 1994, 2000 Center for Computer Assisted Research in the Humanities
!!!YEM: Rights to all derivative editions reserved
!!!YEN: United States of America
**kern	**kern	**kern	**kern	**silbe
*I:[BASSO]	*I:[TENORE]	*I:[ALTO]	*I:[SOPRANO]	*I:[SOPRANO]
*clefF4	*clefGv2	*clefG2	*clefG2	*
*k[b-e-]	*k[b-e-]	*k[b-e-]	*k[b-e-]	*
*B-:	*B-:	*B-:	*B-:	*
*M4/4	*M4/4	*M4/4	*M4/4	*
=1-	=1-	=1-	=1-	=1-
8B-L	4B-	4f	4dd	Je-
8AJ	.	.	.	.
4G	8B-L	4g	8ddL	-su,
.	8cJ	.	8ee-J	.
4D	8dL	4f	8ffL	mei-
.	8cJ	.	8ee-J	.
8GL	4B-	8b-L	4dd	-nes
8FJ	.	8aJ	.	.
=2	=2	=2	=2	=2
8EnL	4B-	4g	4.cc	Her-
8DJ	.	.	.	.
4C	8AL	8fL	.	.
.	8GJ	8enJ	8cc	-zens
2F;	2A;	2f;	2cc;	Freud',
=3	=3	=3	=3	=3
8B-L	4B-	4f	4dd	s√º-
8AJ	.	.	.	.
8GL	4B-	8e-L	8ee-L	-sser
8FJ	.	8fJ	8ddJ	.
4E-	4B-	4g	4.cc	Je-
4F	4A	16fLL	.	.
.	.	16e-	.	.
.	.	16d	8b-	.
.	.	16e-JJ	.	.
=4	=4	=4	=4	=4
2BB-;	2F;	2d;	2b-;	-su!
8FL	4F	4c	8aL	Mei-
8EnJ	.	.	8gJ	.
8FL	4c	4f	8aL	-ner
8GJ	.	.	8b-J	.
=5	=5	=5	=5	=5
8AL	4c	4f	8ccL	See-
8GJ	.	.	8b-J	.
8AL	4c	4f	4a	-len
8B-J	.	.	.	.
4c	4c	8fL	4.g	Se-
.	.	8enJ	.	.
4G	8cL	4d	.	.
.	8BnJ	.	8g	-lig-
=6	=6	=6	=6	=6
2C;	2c;	2en;	2g;	-keit,
4C#	8AL	4e	4a	s√º-
.	8GJ	.	.	.
8DL	4F	4d	8b-L	-sser
8CnJ	.	.	8aJ	.
=7	=7	=7	=7	=7
4BB-	4F	4d	4.g	Je-
4C	4En	4c	.	.
.	.	.	8f	.
2F;	2A;	2c;	2f;	-su!
=8	=8	=8	=8	=8
4F#	4a	4c	4dd	Des
4G	4g	4B-	8ddL	Ge-
.	.	.	8ee-J	.
4A	4f	4c	4ff	-m√º-
4B-	4B-	4f	8ee-L	-tes
.	.	.	8ddJ	.
=9	=9	=9	=9	=9
8B-L	4.e-	8gL	4.cc	Si-
8AJ	.	8fJ	.	.
8B-L	.	4g	.	.
8GJ	8e-	.	8cc	-cher-
2A;	2e-;	2f;	2cc;	-heit,
=10	=10	=10	=10	=10
8B-L	8dL	4f	4dd	s√º-
8AJ	8cJ	.	.	.
8GL	4B-	8e-L	8ee-L	-sser
8FJ	.	8fJ	8ddJ	.
4En	4B-	4g	4.cc	Je-
4F#	8AL	4a	.	.
.	8dJ	.	8b-	.
=11	=11	=11	=11	=11
2G;	2d;	2g;	2b-;	-su!
8cL	4c	4g	8ee-L	Je-
8B-J	.	.	8ddJ	.
8AL	4c	4f	8ee-L	-su,
8FJ	.	.	8ffJ	.
=12	=12	=12	=12	=12
8B-L	4c	4f	8ddL	s√º-
8AJ	.	.	8ccJ	.
8GL	4B-	4b-	8ddL	-sser
8FJ	.	.	8ee-J	.
4E-	4g	4b-	4.ccT	Je-
4F	8fL	4a	.	.
.	8e-J	.	8b-	.
=13	=13	=13	=13	=13
1BB-;	1d;	1f;	1b-;	-su!
==|!	==|!	==|!	==|!	==|!
*-	*-	*-	*-	*-
!!!RWG: Key is interpreted using the Humdrum key tool.
!!!URL-pdf: https://s9.imslp.org/files/imglnks/usimg/6/6b/IMSLP24489-PMLP09471-CCARH_Bach_Chorales.pdf#page=76 Musedata edition
!!!URL-pdf: https://s9.imslp.org/files/imglnks/usimg/7/7a/IMSLP04155-Bach_-_BGA_253-438.pdf#page=59 	Bach-Gesellschaft Ausgabe, Band 39 (pp.175-276) Leipzig: Breitkopf und H‰rtel, 1892. Plate B.W. XXXIX.
!!!END: 1994/07/08
!!!EMD: Converted from MuseData to Humdrum Dec 19, 2000, by Andreas Kornstaedt using muse2kern.
!!!EED: Craig Stuart Sapp
!!!EEV: 2024/03/31
!!!ONB: Some non-unicode characters
!!!filter-keyboard: satb2gs
